X: 35939
T: Saorla's
R: hornpipe
M: 4/4
K: Dmajor
F>G|A>F D>E F>D D2|E>B B>A B2 d>B|A>B d>c d>B A>F|E2 E>D E>A A>G|
~F3 D (3EFG A>B|A>d f>g e>d (3Bcd|~A3 F G>E A>G|F2 D2 D2:|
|:(3ABd|~d2 d>c d2 (3def|e>d f>d B>A F>A|d2 (3dcd fdcd|b>f a>f e2 (3ABc|
~d2 d>c de (3fed|A>d f>g e>d (3Bcd|~A2 F G>F A>G|1 F>D A>F E2:|2 F2 D2 D2||

